images/sd-tv.svg

<svg width="130" height="106" viewBox="0 0 130 106" fill="none" xmlns="http://www.w3.org/2000/svg">
<path d="M74.2341 41.1501C75.5675 41.9199 75.5675 43.8444 74.2341 44.6142L51.051 57.999C49.7176 58.7688 48.051 57.8066 48.051 56.267L48.051 29.4974C48.051 27.9578 49.7176 26.9955 51.051 27.7653L74.2341 41.1501Z" stroke="#7ACC00" stroke-width="2"/>
<path fill-rule="evenodd" clip-rule="evenodd" d="M56.5466 89.1173H53.6023V91.1173H56.5466V89.1173ZM59.8587 91.1173H62.8027V89.1173H59.8587V91.1173ZM66.1147 89.1173V91.1173H92.0458C93.0496 91.1173 93.8633 91.9311 93.8633 92.9349C93.8633 93.9387 93.0496 94.7524 92.0458 94.7524H24.3598C23.356 94.7524 22.5422 93.9387 22.5422 92.9349C22.5422 91.9311 23.356 91.1173 24.3598 91.1173H50.2903V89.1173H24.3598C22.2514 89.1173 20.5422 90.8265 20.5422 92.9349C20.5422 95.0433 22.2514 96.7524 24.3598 96.7524H92.0458C94.1542 96.7524 95.8633 95.0433 95.8633 92.9349C95.8633 90.8265 94.1542 89.1173 92.0458 89.1173H66.1147Z" fill="black"/>
<rect x="101.265" y="45.097" width="27.3893" height="59.2919" rx="5" stroke="black" stroke-width="2" stroke-linejoin="round"/>
<path fill-rule="evenodd" clip-rule="evenodd" d="M10.6805 76.8407L10.5217 77.5737C10.7958 77.6331 11.0804 77.6644 11.3723 77.6644H12.1236V76.9144V76.1644H11.3723C11.1878 76.1644 11.0097 76.1446 10.8392 76.1077L10.6805 76.8407ZM108.283 13.7008H109.033V12.9481C109.033 12.6562 109.002 12.3716 108.943 12.0975L108.21 12.2563L107.477 12.415C107.514 12.5855 107.533 12.7636 107.533 12.9481V13.7008H108.283ZM11.3723 8.94812H12.1236V9.69812V10.4481H11.3723C11.1878 10.4481 11.0097 10.4679 10.8392 10.5048L10.6805 9.77176L10.5217 9.03875C10.7958 8.97939 11.0804 8.94812 11.3723 8.94812ZM8.12231 72.9117H7.37231V73.6644C7.37231 73.9563 7.40358 74.2409 7.46294 74.515L8.19595 74.3562L8.92896 74.1975C8.89205 74.027 8.87231 73.8489 8.87231 73.6644V72.9117H8.12231ZM8.12231 68.8974H7.37231V67.392H8.12231H8.87231V68.8974H8.12231ZM8.12231 63.3777H7.37231V61.8724H8.12231H8.87231V63.3777H8.12231ZM8.12231 57.8581H7.37231V56.3527H8.12231H8.87231V57.8581H8.12231ZM8.12231 52.3384H7.37231V50.8331H8.12231H8.87231V52.3384H8.12231ZM8.12231 46.8188H7.37231V45.3134H8.12231H8.87231V46.8188H8.12231ZM8.12231 41.2991H7.37231V39.7937H8.12231H8.87231V41.2991H8.12231ZM8.12231 35.7794H7.37231V34.2741H8.12231H8.87231V35.7794H8.12231ZM8.12231 30.2598H7.37231V28.7544H8.12231H8.87231V30.2598H8.12231ZM8.12231 24.7401H7.37231V23.2348H8.12231H8.87231V24.7401H8.12231ZM8.12231 19.2205H7.37231V17.7151H8.12231H8.87231V19.2205H8.12231ZM8.12231 13.7008H7.37231V12.9481C7.37231 12.6562 7.40358 12.3716 7.46294 12.0975L8.19595 12.2563L8.92896 12.415C8.89205 12.5855 8.87231 12.7636 8.87231 12.9481V13.7008H8.12231ZM16.1305 9.69812V8.94812H17.6331V9.69812V10.4481H16.1305V9.69812ZM21.64 9.69812V8.94812H23.1425V9.69812V10.4481H21.64V9.69812ZM27.1494 9.69812V8.94812H28.652V9.69812V10.4481H27.1494V9.69812ZM32.6589 9.69812V8.94812H34.1615V9.69812V10.4481H32.6589V9.69812ZM38.1684 9.69812V8.94812H39.6709V9.69812V10.4481H38.1684V9.69812ZM43.6778 9.69812V8.94812H45.1804V9.69812V10.4481H43.6778V9.69812ZM49.1873 9.69812V8.94812H50.6899V9.69812V10.4481H49.1873V9.69812ZM54.6968 9.69812V8.94812H56.1994V9.69812V10.4481H54.6968V9.69812ZM60.2062 9.69812V8.94812H61.7088V9.69812V10.4481H60.2062V9.69812ZM65.7157 9.69812V8.94812H67.2183V9.69812V10.4481H65.7157V9.69812ZM71.2252 9.69812V8.94812H72.7278V9.69812V10.4481H71.2252V9.69812ZM76.7346 9.69812V8.94812H78.2372V9.69812V10.4481H76.7346V9.69812ZM82.2441 9.69812V8.94812H83.7467V9.69812V10.4481H82.2441V9.69812ZM87.7536 9.69812V8.94812H89.2562V9.69812V10.4481H87.7536V9.69812ZM93.263 9.69812V8.94812H94.7656V9.69812V10.4481H93.263V9.69812ZM98.7725 9.69812V8.94812H100.275V9.69812V10.4481H98.7725V9.69812ZM104.282 9.69812V8.94812H105.033C105.325 8.94812 105.61 8.97939 105.884 9.03875L105.725 9.77176L105.566 10.5048C105.396 10.4679 105.218 10.4481 105.033 10.4481H104.282V9.69812ZM108.283 17.7151H109.033V19.2205H108.283H107.533V17.7151H108.283ZM108.283 23.2348H109.033V24.7401H108.283H107.533V23.2348H108.283ZM108.283 28.7544H109.033V30.2598H108.283H107.533V28.7544H108.283ZM108.283 34.2741H109.033V35.7794H108.283H107.533V34.2741H108.283ZM94.7656 76.9144V77.6644H93.2631V76.9144V76.1644H94.7656V76.9144ZM89.2562 76.9144V77.6644H87.7536V76.9144V76.1644H89.2562V76.9144ZM83.7467 76.9144V77.6644H82.2441V76.9144V76.1644H83.7467V76.9144ZM78.2372 76.9144V77.6644H76.7347V76.9144V76.1644H78.2372V76.9144ZM72.7278 76.9144V77.6644H71.2252V76.9144V76.1644H72.7278V76.9144ZM67.2183 76.9144V77.6644H65.7157V76.9144V76.1644H67.2183V76.9144ZM61.7088 76.9144V77.6644H60.2062V76.9144V76.1644H61.7088V76.9144ZM56.1994 76.9144V77.6644H54.6968V76.9144V76.1644H56.1994V76.9144ZM50.6899 76.9144V77.6644H49.1873V76.9144V76.1644H50.6899V76.9144ZM45.1804 76.9144V77.6644H43.6778V76.9144V76.1644H45.1804V76.9144ZM39.671 76.9144V77.6644H38.1684V76.9144V76.1644H39.671V76.9144ZM34.1615 76.9144V77.6644H32.6589V76.9144V76.1644H34.1615V76.9144ZM28.652 76.9144V77.6644H27.1494V76.9144V76.1644H28.652V76.9144ZM23.1426 76.9144V77.6644H21.64V76.9144V76.1644H23.1426V76.9144ZM17.6331 76.9144V77.6644H16.1305V76.9144V76.1644H17.6331V76.9144Z" fill="black"/>
<path fill-rule="evenodd" clip-rule="evenodd" d="M6 2.88892H110.406C112.615 2.88892 114.406 4.67978 114.406 6.88892V37.8663H116.406V6.88892C116.406 3.57521 113.719 0.888916 110.406 0.888916H6C2.68629 0.888916 0 3.5752 0 6.88891V79.7238C0 83.0375 2.68629 85.7238 6 85.7238H96.8851V83.7238H6C3.79086 83.7238 2 81.9329 2 79.7238V6.88891C2 4.67977 3.79086 2.88892 6 2.88892Z" fill="black"/>
<circle cx="114.941" cy="58.7906" r="5.72753" stroke="#7ACC00" stroke-width="2"/>
<circle cx="107.67" cy="71.7033" r="1.73614" fill="black"/>
<circle cx="115.049" cy="71.7032" r="1.73614" fill="black"/>
<circle cx="122.428" cy="71.7032" r="1.73614" fill="black"/>
<circle cx="107.671" cy="79.0817" r="1.73614" fill="black"/>
<circle cx="115.049" cy="79.0817" r="1.73614" fill="black"/>
<circle cx="122.428" cy="79.0817" r="1.73614" fill="black"/>
<circle cx="107.671" cy="86.4603" r="1.73614" fill="black"/>
<circle cx="115.049" cy="86.4603" r="1.73614" fill="black"/>
<circle cx="122.428" cy="86.4603" r="1.73614" fill="black"/>
<circle cx="107.671" cy="93.8389" r="1.73614" fill="black"/>
<circle cx="115.049" cy="93.8389" r="1.73614" fill="black"/>
<circle cx="122.428" cy="93.8389" r="1.73614" fill="black"/>
</svg>

<?xml version="1.0" encoding="utf-8"?>
<!-- Generator: Adobe Illustrator 23.0.1, SVG Export Plug-In . SVG Version: 6.00 Build 0)  -->
<svg version="1.1" id="Layer_1" xmlns="http://www.w3.org/2000/svg" xmlns:xlink="http://www.w3.org/1999/xlink" x="0px" y="0px"
	 viewBox="0 0 130 106" style="enable-background:new 0 0 130 106;" xml:space="preserve">
<style type="text/css">
	.st0{fill:none;stroke:#7ACC00;stroke-width:2;}
	.st1{fill-rule:evenodd;clip-rule:evenodd;fill:#2C3544;}
	.st2{fill:#2C3544;}
</style>
<path class="st0" d="M74.2,41.2c1.3,0.8,1.3,2.7,0,3.5L51.1,58c-1.3,0.8-3-0.2-3-1.7V29.5c0-1.5,1.7-2.5,3-1.7L74.2,41.2z"/>
<path class="st1" d="M56.5,89.1h-2.9v2h2.9V89.1z M59.9,91.1h2.9v-2h-2.9V91.1z M66.1,89.1v2H92c1,0,1.8,0.8,1.8,1.8
	S93,94.8,92,94.8H24.4c-1,0-1.8-0.8-1.8-1.8s0.8-1.8,1.8-1.8h25.9v-2H24.4c-2.1,0-3.8,1.7-3.8,3.8s1.7,3.8,3.8,3.8H92
	c2.1,0,3.8-1.7,3.8-3.8s-1.7-3.8-3.8-3.8H66.1z"/>
<g>
	<path class="st2" d="M123.7,105.4h-17.4c-3.3,0-6-2.7-6-6V50.1c0-3.3,2.7-6,6-6h17.4c3.3,0,6,2.7,6,6v49.3
		C129.7,102.7,127,105.4,123.7,105.4z M106.3,46.1c-2.2,0-4,1.8-4,4v49.3c0,2.2,1.8,4,4,4h17.4c2.2,0,4-1.8,4-4V50.1
		c0-2.2-1.8-4-4-4H106.3z"/>
</g>
<path class="st1" d="M10.7,76.8l-0.2,0.7c0.3,0.1,0.6,0.1,0.9,0.1h0.8v-0.8v-0.8h-0.8c-0.2,0-0.4,0-0.5-0.1L10.7,76.8z M108.3,13.7
	h0.8v-0.8c0-0.3,0-0.6-0.1-0.9l-0.7,0.2l-0.7,0.2c0,0.2,0.1,0.3,0.1,0.5v0.8H108.3z M11.4,8.9h0.8v0.8v0.7h-0.8
	c-0.2,0-0.4,0-0.5,0.1l-0.2-0.7L10.5,9C10.8,9,11.1,8.9,11.4,8.9z M8.1,72.9H7.4v0.8c0,0.3,0,0.6,0.1,0.9l0.7-0.2l0.7-0.2
	c0-0.2-0.1-0.3-0.1-0.5v-0.8H8.1z M8.1,68.9H7.4v-1.5h0.7h0.8v1.5H8.1z M8.1,63.4H7.4v-1.5h0.7h0.8v1.5H8.1z M8.1,57.9H7.4v-1.5h0.7
	h0.8v1.5H8.1z M8.1,52.3H7.4v-1.5h0.7h0.8v1.5H8.1z M8.1,46.8H7.4v-1.5h0.7h0.8v1.5H8.1z M8.1,41.3H7.4v-1.5h0.7h0.8v1.5H8.1z
	 M8.1,35.8H7.4v-1.5h0.7h0.8v1.5H8.1z M8.1,30.3H7.4v-1.5h0.7h0.8v1.5H8.1z M8.1,24.7H7.4v-1.5h0.7h0.8v1.5H8.1z M8.1,19.2H7.4v-1.5
	h0.7h0.8v1.5H8.1z M8.1,13.7H7.4v-0.8c0-0.3,0-0.6,0.1-0.9l0.7,0.2l0.7,0.2c0,0.2-0.1,0.3-0.1,0.5v0.8H8.1z M16.1,9.7V8.9h1.5v0.8
	v0.7h-1.5V9.7z M21.6,9.7V8.9h1.5v0.8v0.7h-1.5V9.7z M27.1,9.7V8.9h1.5v0.8v0.7h-1.5V9.7z M32.7,9.7V8.9h1.5v0.8v0.7h-1.5V9.7z
	 M38.2,9.7V8.9h1.5v0.8v0.7h-1.5V9.7z M43.7,9.7V8.9h1.5v0.8v0.7h-1.5V9.7z M49.2,9.7V8.9h1.5v0.8v0.7h-1.5V9.7z M54.7,9.7V8.9h1.5
	v0.8v0.7h-1.5V9.7z M60.2,9.7V8.9h1.5v0.8v0.7h-1.5V9.7z M65.7,9.7V8.9h1.5v0.8v0.7h-1.5V9.7z M71.2,9.7V8.9h1.5v0.8v0.7h-1.5V9.7z
	 M76.7,9.7V8.9h1.5v0.8v0.7h-1.5V9.7z M82.2,9.7V8.9h1.5v0.8v0.7h-1.5V9.7z M87.8,9.7V8.9h1.5v0.8v0.7h-1.5V9.7z M93.3,9.7V8.9h1.5
	v0.8v0.7h-1.5V9.7z M98.8,9.7V8.9h1.5v0.8v0.7h-1.5V9.7z M104.3,9.7V8.9h0.8c0.3,0,0.6,0,0.9,0.1l-0.2,0.7l-0.2,0.7
	c-0.2,0-0.3-0.1-0.5-0.1h-0.8V9.7z M108.3,17.7h0.8v1.5h-0.8h-0.8v-1.5H108.3z M108.3,23.2h0.8v1.5h-0.8h-0.8v-1.5H108.3z
	 M108.3,28.8h0.8v1.5h-0.8h-0.8v-1.5H108.3z M108.3,34.3h0.8v1.5h-0.8h-0.8v-1.5H108.3z M94.8,76.9v0.8h-1.5v-0.8v-0.8h1.5V76.9z
	 M89.3,76.9v0.8h-1.5v-0.8v-0.8h1.5V76.9z M83.7,76.9v0.8h-1.5v-0.8v-0.8h1.5V76.9z M78.2,76.9v0.8h-1.5v-0.8v-0.8h1.5V76.9z
	 M72.7,76.9v0.8h-1.5v-0.8v-0.8h1.5V76.9z M67.2,76.9v0.8h-1.5v-0.8v-0.8h1.5V76.9z M61.7,76.9v0.8h-1.5v-0.8v-0.8h1.5V76.9z
	 M56.2,76.9v0.8h-1.5v-0.8v-0.8h1.5V76.9z M50.7,76.9v0.8h-1.5v-0.8v-0.8h1.5V76.9z M45.2,76.9v0.8h-1.5v-0.8v-0.8h1.5V76.9z
	 M39.7,76.9v0.8h-1.5v-0.8v-0.8h1.5V76.9z M34.2,76.9v0.8h-1.5v-0.8v-0.8h1.5V76.9z M28.7,76.9v0.8h-1.5v-0.8v-0.8h1.5V76.9z
	 M23.1,76.9v0.8h-1.5v-0.8v-0.8h1.5V76.9z M17.6,76.9v0.8h-1.5v-0.8v-0.8h1.5V76.9z"/>
<path class="st1" d="M6,2.9h104.4c2.2,0,4,1.8,4,4v31h2v-31c0-3.3-2.7-6-6-6H6c-3.3,0-6,2.7-6,6v72.8c0,3.3,2.7,6,6,6h90.9v-2H6
	c-2.2,0-4-1.8-4-4V6.9C2,4.7,3.8,2.9,6,2.9z"/>
<circle class="st0" cx="114.9" cy="58.8" r="5.7"/>
<circle class="st2" cx="107.7" cy="71.7" r="1.7"/>
<circle class="st2" cx="115" cy="71.7" r="1.7"/>
<circle class="st2" cx="122.4" cy="71.7" r="1.7"/>
<circle class="st2" cx="107.7" cy="79.1" r="1.7"/>
<circle class="st2" cx="115" cy="79.1" r="1.7"/>
<circle class="st2" cx="122.4" cy="79.1" r="1.7"/>
<circle class="st2" cx="107.7" cy="86.5" r="1.7"/>
<circle class="st2" cx="115" cy="86.5" r="1.7"/>
<circle class="st2" cx="122.4" cy="86.5" r="1.7"/>
<circle class="st2" cx="107.7" cy="93.8" r="1.7"/>
<circle class="st2" cx="115" cy="93.8" r="1.7"/>
<circle class="st2" cx="122.4" cy="93.8" r="1.7"/>
</svg>
